X:231
T: Ele chamda libi
O:klezmer
Z: John Chambers <jc@trillian.mit.edu>
M: 2/4
L: 1/8
K: Em
[| "Em"E2 E2 | EE (B,E) | G4- | G4 \
w: E-le cham-da li-bi
| GG GG | GG EG | B4- | B4 \
w: chu-sa na ve-'al na tit-'a-lem.
|: "Em"B2 G2 | "Am"A2 E2 |
w: E-le cham-da
| "Em"G(B- BA) | (GF) E2 | GG GG \
w: cham-da li-bi chu-sa na ve-
|1 "Am"AA     GA | "B7"B4- | B4 \
w: 'al na tit-'a-lem.
:|2 "Am"AA "B7"GF | "Em"E4- | E4 ||
w: 'al na tit-'a-lem.
|| "C"e2 e2 ee (dc) | "Em"B4- | B4 \
w: E-le cham-da li-bi
|  "C"ee ee ee (dc) | "Em"B4- | "B7"B4 \
w: chu-sa na ve-'al na tit-'a-lem.
|: "Em"B2 G2 | "Am"A2 E2 |
w: E-le cham-da
| "Em"G(B- BA) | (GF) E2 \
w: cham-da li-bi
| GG GG |1 "Am"AA     GA | "B7"B4- | B4 \
w: chu-sa na ve-'al na tit-'a-lem.
:|2 "Am"AA "B7"GF | "Em"E4- | E4 |]
w: 'al na tit-'a-lem.





